pro/src/icons/stroke-page-not-found.svg

<svg width="130" height="100" viewBox="0 0 130 100" fill="none" xmlns="http://www.w3.org/2000/svg">
<g id="icon">
<path fill="currentColor" d="M74.4109 69.099C74.4109 77.5006 81.1384 84.3085 89.4408 84.3085C97.7432 84.3085 104.471 77.5006 104.471 69.099C104.471 60.6974 97.7432 53.8895 89.4408 53.8895C86.8486 53.8895 84.4099 54.5556 82.2779 55.7285C81.5896 56.1071 80.7283 55.8494 80.3541 55.1529C79.9799 54.4564 80.2346 53.5848 80.9229 53.2061C83.4591 51.8109 86.3622 51.0186 89.4408 51.0186C91.5441 51.0186 93.5624 51.3862 95.4364 52.0613V33.2327H87.6196C86.8267 33.2327 86.1839 32.5846 86.1839 31.7852C86.1839 30.9857 86.8267 30.3377 87.6196 30.3377H95.4364V27.9637C95.4364 23.365 92.0737 19.8833 88.245 19.8833H33.0744C29.2287 19.8833 25.8829 23.3626 25.8829 27.9637V30.3377H77.4099C78.2029 30.3377 78.8457 30.9857 78.8457 31.7852C78.8457 32.5846 78.2029 33.2327 77.4099 33.2327H25.8829V66.4869C25.8829 71.0881 29.2287 74.5673 33.0744 74.5673H64.5075C65.3885 74.5673 66.1027 75.2874 66.1027 76.1757C66.1027 77.0639 65.3885 77.784 64.5075 77.784H33.0744C27.1998 77.784 22.6924 72.5831 22.6924 66.4869V27.9637C22.6924 21.8675 27.1998 16.6666 33.0744 16.6666H88.245C94.0983 16.6666 98.627 21.8652 98.627 27.9637V52.6551C98.627 52.9482 98.5492 53.223 98.4134 53.4596C103.733 56.5909 107.308 62.4217 107.308 69.099C107.308 79.0862 99.31 87.1794 89.4408 87.1794C79.5716 87.1794 71.5738 79.0862 71.5738 69.099C71.5738 66.0287 72.3307 63.1245 73.6775 60.5884C74.0484 59.8901 74.9084 59.6282 75.5985 60.0035C76.2886 60.3788 76.5474 61.2492 76.1765 61.9475C75.0483 64.072 74.4109 66.51 74.4109 69.099ZM74.2371 60.8927C74.2774 60.8169 74.3281 60.7503 74.3865 60.694C74.3392 60.7443 74.2976 60.8018 74.2635 60.8659C72.9657 63.3099 72.2356 66.1097 72.2356 69.0722C72.2356 78.7043 79.9489 86.5098 89.4673 86.5098C94.2204 86.5098 98.5235 84.5634 101.641 81.4151C98.5214 84.5791 94.2074 86.5366 89.4408 86.5366C79.9224 86.5366 72.2091 78.7311 72.2091 69.099C72.2091 66.1365 72.9392 63.3367 74.2371 60.8927ZM80.9122 54.8459C80.7394 54.5242 80.8095 54.1349 81.0595 53.8938C80.8312 54.1362 80.7722 54.509 80.9387 54.8191C81.1453 55.2037 81.6209 55.3459 82.0009 55.1369C84.2234 53.9142 86.7662 53.2199 89.4673 53.2199C98.1205 53.2199 105.132 60.3156 105.132 69.0722C105.132 73.4567 103.375 77.4248 100.533 80.2942C103.359 77.4269 105.106 73.4698 105.106 69.099C105.106 60.3424 98.094 53.2467 89.4408 53.2467C86.7397 53.2467 84.197 53.941 81.9745 55.1637C81.5944 55.3727 81.1188 55.2305 80.9122 54.8459ZM82.6343 75.9845C82.0032 75.3447 82.0042 74.3082 82.6366 73.6696L87.1524 69.1087L82.6625 64.5547C82.0315 63.9147 82.0327 62.8783 82.6651 62.2397C83.2976 61.6012 84.3218 61.6024 84.9528 62.2424L89.4363 66.7899L93.9267 62.2162C94.5564 61.5749 95.5806 61.5715 96.2143 62.2087C96.8481 62.8459 96.8514 63.8823 96.2218 64.5237L91.7296 69.0992L96.2424 73.635C96.8763 74.2721 96.8798 75.3085 96.2502 75.95C95.6206 76.5914 94.5964 76.5949 93.9626 75.9578L89.4457 71.4179L84.922 75.9868C84.2897 76.6254 83.2654 76.6244 82.6343 75.9845ZM32.6283 27.4974C33.6904 27.4974 34.5514 26.6364 34.5514 25.5743C34.5514 24.5122 33.6904 23.6512 32.6283 23.6512C31.5662 23.6512 30.7052 24.5122 30.7052 25.5743C30.7052 26.6364 31.5662 27.4974 32.6283 27.4974ZM40.9616 25.5743C40.9616 26.6364 40.1006 27.4974 39.0385 27.4974C37.9765 27.4974 37.1155 26.6364 37.1155 25.5743C37.1155 24.5122 37.9765 23.6512 39.0385 23.6512C40.1006 23.6512 40.9616 24.5122 40.9616 25.5743ZM45.4488 27.4974C46.5109 27.4974 47.3719 26.6364 47.3719 25.5743C47.3719 24.5122 46.5109 23.6512 45.4488 23.6512C44.3867 23.6512 43.5257 24.5122 43.5257 25.5743C43.5257 26.6364 44.3867 27.4974 45.4488 27.4974Z" />
</g>
</svg>

<svg xmlns="http://www.w3.org/2000/svg" width="130" height="100" fill="none"><path id="icon" fill="currentColor" d="M74.41 69.099c0 8.402 6.728 15.21 15.03 15.21 8.303 0 15.031-6.808 15.031-15.21s-6.728-15.21-15.03-15.21c-2.592 0-5.031.667-7.163 1.84a1.41 1.41 0 0 1-1.924-.576 1.444 1.444 0 0 1 .569-1.947 17.6 17.6 0 0 1 8.518-2.187c2.103 0 4.121.367 5.995 1.042V33.233H87.62a1.44 1.44 0 0 1-1.436-1.448c0-.8.643-1.447 1.436-1.447h7.816v-2.374c0-4.599-3.362-8.08-7.191-8.08h-55.17c-3.846 0-7.192 3.479-7.192 8.08v2.374H77.41c.793 0 1.436.648 1.436 1.447 0 .8-.643 1.448-1.436 1.448H25.883v33.254c0 4.601 3.346 8.08 7.191 8.08h31.433c.881 0 1.596.72 1.596 1.609 0 .888-.715 1.608-1.596 1.608H33.074c-5.874 0-10.382-5.2-10.382-11.297V27.964c0-6.096 4.508-11.297 10.382-11.297h55.171c5.853 0 10.382 5.198 10.382 11.297v24.691c0 .293-.078.568-.214.805a18.11 18.11 0 0 1 8.895 15.639c0 9.987-7.998 18.08-17.867 18.08S71.574 79.086 71.574 69.1c0-3.07.757-5.975 2.103-8.51a1.41 1.41 0 0 1 1.921-.585c.69.375.95 1.245.579 1.944a15.2 15.2 0 0 0-1.766 7.151m-.173-8.206a.8.8 0 0 1 .15-.199.8.8 0 0 0-.124.172 17.46 17.46 0 0 0-2.027 8.206c0 9.632 7.713 17.438 17.231 17.438 4.753 0 9.057-1.947 12.174-5.095-3.12 3.164-7.434 5.122-12.2 5.122-9.519 0-17.232-7.806-17.232-17.438 0-2.963.73-5.762 2.028-8.206m6.675-6.047a.8.8 0 0 1 .147-.952.8.8 0 0 0-.12.925.78.78 0 0 0 1.062.318 15.44 15.44 0 0 1 7.466-1.917c8.654 0 15.665 7.096 15.665 15.852 0 4.385-1.757 8.353-4.599 11.222a15.9 15.9 0 0 0 4.573-11.195c0-8.757-7.012-15.852-15.665-15.852-2.701 0-5.244.694-7.466 1.917a.78.78 0 0 1-1.063-.318m1.722 21.139a1.65 1.65 0 0 1 .003-2.315l4.515-4.561-4.49-4.554a1.65 1.65 0 0 1 .003-2.315 1.604 1.604 0 0 1 2.288.002l4.483 4.548 4.49-4.574a1.604 1.604 0 0 1 2.288-.007 1.65 1.65 0 0 1 .008 2.315l-4.492 4.575 4.512 4.536a1.65 1.65 0 0 1 .008 2.315 1.604 1.604 0 0 1-2.287.008l-4.517-4.54-4.524 4.569a1.604 1.604 0 0 1-2.288-.002M32.628 27.496a1.923 1.923 0 1 0 0-3.846 1.923 1.923 0 0 0 0 3.846m8.334-1.923a1.923 1.923 0 1 1-3.847 0 1.923 1.923 0 0 1 3.847 0m4.487 1.923a1.923 1.923 0 1 0 0-3.846 1.923 1.923 0 0 0 0 3.846"/></svg>
